actions/symbolic/application-menu-symbolic.svg

<svg viewBox="0 0 16 16" xmlns="http://www.w3.org/2000/svg"><path d="m2.75 6.5c-.9695 0-1.75.7805-1.75 1.75s.7805 1.75 1.75 1.75 1.75-.7805 1.75-1.75-.7805-1.75-1.75-1.75zm5.25 0c-.9695 0-1.75.7805-1.75 1.75s.7805 1.75 1.75 1.75 1.75-.7805 1.75-1.75-.7805-1.75-1.75-1.75zm5.25 0c-.9695 0-1.75.7805-1.75 1.75s.7805 1.75 1.75 1.75 1.75-.7805 1.75-1.75-.7805-1.75-1.75-1.75z" fill="#bebebe"/></svg>

<?xml version="1.0" encoding="UTF-8" standalone="no"?>
<svg
   xmlns:dc="http://purl.org/dc/elements/1.1/"
   xmlns:cc="http://creativecommons.org/ns#"
   xmlns:rdf="http://www.w3.org/1999/02/22-rdf-syntax-ns#"
   xmlns:svg="http://www.w3.org/2000/svg"
   xmlns="http://www.w3.org/2000/svg"
   xmlns:sodipodi="http://sodipodi.sourceforge.net/DTD/sodipodi-0.dtd"
   xmlns:inkscape="http://www.inkscape.org/namespaces/inkscape"
   viewBox="0 0 16 16"
   id="svg3313"
   version="1.1"
   inkscape:version="0.91 r13725"
   sodipodi:docname="application-menu-symbolic.svg">
  <metadata
     id="metadata3321">
    <rdf:RDF>
      <cc:Work
         rdf:about="">
        <dc:format>image/svg+xml</dc:format>
        <dc:type
           rdf:resource="http://purl.org/dc/dcmitype/StillImage" />
      </cc:Work>
    </rdf:RDF>
  </metadata>
  <sodipodi:namedview
     pagecolor="#ffffff"
     bordercolor="#666666"
     borderopacity="1"
     objecttolerance="10"
     gridtolerance="10"
     guidetolerance="10"
     inkscape:pageopacity="0"
     inkscape:pageshadow="2"
     inkscape:window-width="640"
     inkscape:window-height="480"
     id="namedview3319"
     showgrid="false"
     inkscape:zoom="39.8125"
     inkscape:cx="3.5290424"
     inkscape:cy="8"
     inkscape:current-layer="svg3313" />
  <defs
     id="defs3051">
    <style
       type="text/css"
       id="current-color-scheme">
      .ColorScheme-Text {
        color:#bebebe;
      }
      </style>
  </defs>
  <path
     style="color:#bebebe;fill:currentColor;fill-opacity:1;stroke:none"
     class="ColorScheme-Text"
     d="M 2.75,6.5 C 1.7805,6.5 1,7.2805 1,8.25 1,9.2195 1.7805,10 2.75,10 3.7195,10 4.5,9.2195 4.5,8.25 4.5,7.2805 3.7195,6.5 2.75,6.5 Z M 8,6.5 C 7.0305,6.5 6.25,7.2805 6.25,8.25 6.25,9.2195 7.0305,10 8,10 8.9695,10 9.75,9.2195 9.75,8.25 9.75,7.2805 8.9695,6.5 8,6.5 Z m 5.25,0 C 12.2805,6.5 11.5,7.2805 11.5,8.25 11.5,9.2195 12.2805,10 13.25,10 14.2195,10 15,9.2195 15,8.25 15,7.2805 14.2195,6.5 13.25,6.5 Z"
     id="path3317"
     inkscape:connector-curvature="0" />
</svg>
